Origami/48x48/apps/peruse.svg

<svg width="48" height="48" version="1" xmlns="http://www.w3.org/2000/svg">
 <path d="m26 6-5 17 23 7v-22c0-1.108-0.892-2-2-2z" style="fill-rule:evenodd;fill:#bbc91b"/>
 <path d="m21 23-6 19h27c1.108 0 2-0.892 2-2v-4-6z" style="fill-rule:evenodd;fill:#3e7952"/>
 <path d="m6 6c-1.108 0-2 0.892-2 2v32c0 1.108 0.892 2 2 2h9.957031l10.042969-36z" style="fill-rule:evenodd;fill:#3a76a2"/>
 <path d="m4 40v1c0 1.108 0.892 2 2 2h36c1.108 0 2-0.892 2-2v-1c0 1.108-0.892 2-2 2h-36c-1.108 0-2-0.892-2-2z" style="opacity:.2"/>
 <path d="M 23.62305,10.44922 C 15.6287,19.96197 4,19 4,19 l 0,4 c 0,0 3.85465,5.436739 14.3457,4.735049 z" style="fill:#9f3f32"/>
 <path d="m17.97558 17.57109c-0.76125 4e-3 -1.89368 1.28023-1.04173 1.9014 0.93345 0.6806 0.68332 1.41694 0.21599 1.60896-0.46733 0.19204-1.17807 0.0203-1.23889-1.12648-0.0579-1.09086-1.23468-1.74457-2.34369-0.11337-0.0685 0.17274-0.11969 0.34733-0.14398 0.52197-0.21912 1.57554 1.32109 3.11764 2.89663 3.33676 1.57555 0.21913 3.43534-1.15518 3.65446-2.73073 0.19047-1.36951-0.7223-2.88179-1.99877-3.3985zm-4.04796 1.61636c-0.0415 0.0584-0.0689 0.1202-0.10621 0.17996l0.10621-0.17996z" style="fill:#4d2f2b"/>
 <path d="m23.623047 10.449219c-5.147055 5.402986-10.771221 7.270024-15.109375 8.287109 0.4838431 0.570819 1.3065678 1.263672 2.4863281 1.263672 2 0 3-1 3-1s2.61351 0.63518 6-2c1.166329-0.907577 1.984246-2.011678 2.580078-3.074219z" style="fill:#dee3e3"/>
 <path d="m19.960938 22.652344c-0.738743 0.296279-1.639387 0.68688-2.960938 1.347656-2.231327 1.115664-4.078037 2.195271-5.339844 3.238951 2.061365 0.79565 4.230633 0.981473 6.685547 0.496094z" style="fill:#e05e4c"/>
 <path d="m33.621094 26.404297c-0.444199 0.617294-0.914119 1.433643-1.390625 2.462891-1.35384 2.924309-2.166383 6.065331-3.195313 5.957031-1.02892-0.10833-1.379069-0.538727-1.949218-1.191407-0.570151-0.652669-1.282329-1.941232-1.986329-2.320312s-0.865061-0.270946-1.24414-0.216797c-0.37908 0.0542-0.570086-0.06835-0.759766 0.433594-0.18966 0.50192 0.795636 1.616489 1.066406 2.537109 0.211921 0.720533 0.71643 1.902065 0.902344 2.902344l1.615235 5.03125h10.4375c0.533047-1.516733 1.775767-3.525829 3.345703-4.945312 0.289973-0.262184 2.22173-1.789349 2.371093-2.09961 0.212142-0.440667-0.0097-1.187677-0.585937-1.11914-0.192078 0.02285-0.442668 0.131174-0.767578 0.361328-0.587974 0.41648-2.317842 1.278068-3.06836 1.802734 0.784557-1.151618 2.338878-2.954898 2.753907-3.558594 0.434783-0.632403 1.237086-1.923238 1.36914-2.724609l-1.308594-0.484375c-0.445746 0.29389-0.968106 0.837845-1.630859 1.638672-1.29969 1.57045-2.869514 3.899148-3.302734 3.574218-0.43324-0.324919 1.353715-2.761571 2.166015-4.332031 0.28856-0.557886 0.568321-1.099094 0.800782-1.613281l-2.138672-0.792969c-0.444938 0.606164-0.82847 1.268259-1.044922 1.701172-0.54154 1.08308-1.95012 4.22495-2.4375 4.0625-0.48739-0.16246 0.324419-2.870409 1.136719-4.386719 0.334999-0.625339 0.663554-1.292153 0.90625-1.914062l-2.060547-0.765625z" style="fill:#ffc169"/>
 <path d="M 41.39372,8 C 38.78744,8 34,8 29.83736,9.86876 c -1.77221,0.79561 -3.47504,3.07548 -2.60628,3.94424 0.86876,0.86877 2.62159,-1.29332 5.21255,-2.20672 C 37,10 42.09174,9.19849 44,8.97226 L 44,8.39705 C 43.45258,8.1931 42.62149,8 41.39372,8 Z" style="fill:#6c5548"/>
 <path d="m35.445312 13c-3.081279 0-6.445312 4.251605-6.445312 7.347747 0 1.741685 3.954424 2.231172 6.933594 2.612139 3.05664 0.390865 6.066406-2.128146 6.066406-5.224278 0-0.22647-0.02294-0.442719-0.05859-0.653526v-2e-3c-0.0017-0.01005-0.0041-0.01946-0.0059-0.02944-7e-5 -3.91e-4 -0.0019-0.0016-2e-3 -2e-3 -0.434327-2.432462-3.142405-3.793006-5.785156-4.001618-0.0026-2.09e-4 -0.0052-0.0017-0.0078-0.0019-0.232322-0.018-0.465575-0.04505-0.695242-0.04505z" style="opacity:.2"/>
 <path d="m35.445312 12c-3.081279 0-6.445312 4.251605-6.445312 7.347747 0 1.741685 3.954424 2.231172 6.933594 2.612139 3.05664 0.390865 6.066406-2.128146 6.066406-5.224278 0-0.22647-0.02294-0.442719-0.05859-0.653526v-2e-3c-0.0017-0.01005-0.0041-0.01946-0.0059-0.02944-7e-5 -3.91e-4 -0.0019-0.0016-2e-3 -2e-3 -0.434327-2.432462-3.142405-3.793006-5.785156-4.001618-0.0026-2.09e-4 -0.0052-0.0017-0.0078-0.0019-0.232322-0.018-0.465575-0.04505-0.695242-0.04505z" style="fill:#ffffff"/>
 <path d="m36.867188 12.142578a3.0333104 3.0479313 0 0 0 -1.867188 2.808594 3.0333104 3.0479313 0 0 0 3.033203 3.048828 3.0333104 3.0479313 0 0 0 3.033203 -3.048828 3.0333104 3.0479313 0 0 0 -0.113281 -0.8125c-0.968985-1.071528-2.492373-1.743966-4.085937-1.996094z" style="fill:#583268"/>
 <path d="m8.9003906 6c0.193645 2.0001139 0.8240356 4.228758 1.4531254 5.318375 1.24263 2.15231 3.494174 2.02388 5.646484 0.78125 2.15212-1.24264 3.78864-3.228565 2.546-5.380875-0.125697-0.2177141-0.308807-0.4668564-0.5-0.71875z" style="fill:#54d883"/>
 <path d="m24.322266 7-9.646485 36h0.324219 0.957031 0.789063l9.646484-36h-0.392578-1.677734z" style="opacity:.2"/>
 <path d="M 21,23 20.482422,24.931641 44,31.232422 44,31 44,29.162109 21,23 Z" style="opacity:.2"/>
 <path d="m24.322266 6-9.646485 36h0.324219 0.957031 0.789063l9.646484-36h-0.392578-1.677734z" style="fill:#ffffff"/>
 <path d="M 21,22 20.482422,23.931641 44,30.232422 44,30 44,28.162109 21,22 Z" style="fill:#ffffff"/>
 <path d="m6 6c-1.108 0-2 0.892-2 2v1c0-1.108 0.892-2 2-2h36c1.108 0 2 0.892 2 2v-1c0-1.108-0.892-2-2-2z" style="fill:#ffffff;opacity:.2"/>
</svg>

<svg xmlns="http://www.w3.org/2000/svg" width="48" height="48" version="1">
 <path style="fill:#bbc91b;fill-rule:evenodd" d="M 26,6 21,23 44,30 44,8 C 44,6.892 43.108,6 42,6 Z"/>
 <path style="fill:#3e7952;fill-rule:evenodd" d="m 21,23 -6,19 27,0 c 1.108,0 2,-0.892 2,-2 l 0,-4 0,-6 z"/>
 <path style="fill:#3a76a2;fill-rule:evenodd" d="M 6,6 C 4.892,6 4,6.892 4,8 l 0,32 c 0,1.108 0.892,2 2,2 L 15.957031,42 26,6 Z"/>
 <path style="opacity:0.2" d="m 4,40 0,1 c 0,1.108 0.892,2 2,2 l 36,0 c 1.108,0 2,-0.892 2,-2 l 0,-1 c 0,1.108 -0.892,2 -2,2 L 6,42 C 4.892,42 4,41.108 4,40 Z"/>
 <path style="fill:#9f3f32" d="M 23.62305,10.44922 C 15.6287,19.96197 4,19 4,19 l 0,4 c 0,0 3.85465,5.436739 14.3457,4.735049 z"/>
 <path style="fill:#4d2f2b" d="m 17.97558,17.57109 c -0.76125,0.004 -1.89368,1.28023 -1.04173,1.9014 0.93345,0.6806 0.68332,1.41694 0.21599,1.60896 -0.46733,0.19204 -1.17807,0.0203 -1.23889,-1.12648 -0.0579,-1.09086 -1.23468,-1.74457 -2.34369,-0.11337 -0.0685,0.17274 -0.11969,0.34733 -0.14398,0.52197 -0.21912,1.57554 1.32109,3.11764 2.89663,3.33676 1.57555,0.21913 3.43534,-1.15518 3.65446,-2.73073 0.19047,-1.36951 -0.7223,-2.88179 -1.99877,-3.3985 z m -4.04796,1.61636 c -0.0415,0.0584 -0.0689,0.1202 -0.10621,0.17996 l 0.10621,-0.17996 z"/>
 <path style="fill:#dee3e3" d="M 23.623047,10.449219 C 18.475992,15.852205 12.851826,17.719243 8.5136719,18.736328 8.997515,19.307147 9.8202397,20 11,20 c 2,0 3,-1 3,-1 0,0 2.61351,0.63518 6,-2 1.166329,-0.907577 1.984246,-2.011678 2.580078,-3.074219 z"/>
 <path style="fill:#e05e4c" d="M 19.960938,22.652344 C 19.222195,22.948623 18.321551,23.339224 17,24 c -2.231327,1.115664 -4.078037,2.195271 -5.339844,3.238951 2.061365,0.79565 4.230633,0.981473 6.685547,0.496094 z"/>
 <path style="fill:#ffc169" d="m 33.621094,26.404297 c -0.444199,0.617294 -0.914119,1.433643 -1.390625,2.462891 -1.35384,2.924309 -2.166383,6.065331 -3.195313,5.957031 -1.02892,-0.10833 -1.379069,-0.538727 -1.949218,-1.191407 -0.570151,-0.652669 -1.282329,-1.941232 -1.986329,-2.320312 -0.704,-0.37908 -0.865061,-0.270946 -1.24414,-0.216797 -0.37908,0.0542 -0.570086,-0.06835 -0.759766,0.433594 -0.18966,0.50192 0.795636,1.616489 1.066406,2.537109 0.211921,0.720533 0.71643,1.902065 0.902344,2.902344 L 26.679688,42 l 10.4375,0 c 0.533047,-1.516733 1.775767,-3.525829 3.345703,-4.945312 0.289973,-0.262184 2.22173,-1.789349 2.371093,-2.09961 0.212142,-0.440667 -0.0097,-1.187677 -0.585937,-1.11914 -0.192078,0.02285 -0.442668,0.131174 -0.767578,0.361328 -0.587974,0.41648 -2.317842,1.278068 -3.06836,1.802734 0.784557,-1.151618 2.338878,-2.954898 2.753907,-3.558594 0.434783,-0.632403 1.237086,-1.923238 1.36914,-2.724609 l -1.308594,-0.484375 c -0.445746,0.29389 -0.968106,0.837845 -1.630859,1.638672 -1.29969,1.57045 -2.869514,3.899148 -3.302734,3.574218 -0.43324,-0.324919 1.353715,-2.761571 2.166015,-4.332031 0.28856,-0.557886 0.568321,-1.099094 0.800782,-1.613281 l -2.138672,-0.792969 c -0.444938,0.606164 -0.82847,1.268259 -1.044922,1.701172 -0.54154,1.08308 -1.95012,4.22495 -2.4375,4.0625 -0.48739,-0.16246 0.324419,-2.870409 1.136719,-4.386719 0.334999,-0.625339 0.663554,-1.292153 0.90625,-1.914062 l -2.060547,-0.765625 z"/>
 <path style="fill:#6c5548" d="M 41.39372,8 C 38.78744,8 34,8 29.83736,9.86876 c -1.77221,0.79561 -3.47504,3.07548 -2.60628,3.94424 0.86876,0.86877 2.62159,-1.29332 5.21255,-2.20672 C 37,10 42.09174,9.19849 44,8.97226 L 44,8.39705 C 43.45258,8.1931 42.62149,8 41.39372,8 Z"/>
 <path style="opacity:0.2" d="M 35.445312,13 C 32.364033,13 29,17.251605 29,20.347747 c 0,1.741685 3.954424,2.231172 6.933594,2.612139 C 38.990234,23.350751 42,20.83174 42,17.735608 c 0,-0.22647 -0.02294,-0.442719 -0.05859,-0.653526 0,0 0,-0.002 0,-0.002 -0.0017,-0.01005 -0.0041,-0.01946 -0.0059,-0.02944 -7e-5,-3.91e-4 -0.0019,-0.0016 -0.002,-0.002 -0.434327,-2.432462 -3.142405,-3.793006 -5.785156,-4.001618 -0.0026,-2.09e-4 -0.0052,-0.0017 -0.0078,-0.0019 -0.232322,-0.018 -0.465575,-0.04505 -0.695242,-0.04505 z"/>
 <path style="fill:#ffffff" d="M 35.445312,12 C 32.364033,12 29,16.251605 29,19.347747 c 0,1.741685 3.954424,2.231172 6.933594,2.612139 C 38.990234,22.350751 42,19.83174 42,16.735608 c 0,-0.22647 -0.02294,-0.442719 -0.05859,-0.653526 0,0 0,-0.002 0,-0.002 -0.0017,-0.01005 -0.0041,-0.01946 -0.0059,-0.02944 -7e-5,-3.91e-4 -0.0019,-0.0016 -0.002,-0.002 -0.434327,-2.432462 -3.142405,-3.793006 -5.785156,-4.001618 -0.0026,-2.09e-4 -0.0052,-0.0017 -0.0078,-0.0019 -0.232322,-0.018 -0.465575,-0.04505 -0.695242,-0.04505 z"/>
 <path style="fill:#583268" d="M 36.867188,12.142578 A 3.0333104,3.0479313 0 0 0 35,14.951172 3.0333104,3.0479313 0 0 0 38.033203,18 a 3.0333104,3.0479313 0 0 0 3.033203,-3.048828 3.0333104,3.0479313 0 0 0 -0.113281,-0.8125 C 39.98414,13.067144 38.460752,12.394706 36.867188,12.142578 Z"/>
 <path style="fill:#54d883" d="m 8.9003906,6 c 0.193645,2.0001139 0.8240356,4.228758 1.4531254,5.318375 1.24263,2.15231 3.494174,2.02388 5.646484,0.78125 C 18.15212,10.856985 19.78864,8.87106 18.546,6.71875 18.420303,6.5010359 18.237193,6.2518936 18.046,6 Z"/>
 <path style="opacity:0.2" d="M 24.322266,7 14.675781,43 15,43 15.957031,43 16.746094,43 26.392578,7 26,7 24.322266,7 Z"/>
 <path style="opacity:0.2" d="M 21,23 20.482422,24.931641 44,31.232422 44,31 44,29.162109 21,23 Z"/>
 <path style="fill:#ffffff" d="M 24.322266,6 14.675781,42 15,42 15.957031,42 16.746094,42 26.392578,6 26,6 24.322266,6 Z"/>
 <path style="fill:#ffffff" d="M 21,22 20.482422,23.931641 44,30.232422 44,30 44,28.162109 21,22 Z"/>
 <path style="opacity:0.2;fill:#ffffff" d="M 6,6 C 4.892,6 4,6.892 4,8 L 4,9 C 4,7.892 4.892,7 6,7 l 36,0 c 1.108,0 2,0.892 2,2 L 44,8 C 44,6.892 43.108,6 42,6 Z"/>
</svg>
